EmulationStation/.emulationstation/themes/es-theme-carbon-copy/art/controllers/oric.svg

<svg xmlns="http://www.w3.org/2000/svg" width="598.189" height="350.26" xml:space="preserve">
    <path fill="#F4F4F4" d="M59.865 151.554v-15.136h27.786v15.136H59.865zm26.786-1.001v-1 1zm-24.786-1H85.65v-11.135H61.865v11.135zM96.865 151.554v-15.136h27.786v15.136H96.865zm26.786-1.001v-1 1zm-24.785-1h23.785v-11.137H98.866v11.137zM133.867 151.554v-15.136h27.784v15.136h-27.784zm26.785-1.001v-1 1zm-24.784-1h23.783v-11.137h-23.783v11.137zM170.868 151.554v-15.136h27.786v15.136h-27.786zm26.786-1.001v-1 1zm-24.785-1h23.784l-.002-11.137h-23.782v11.137zM207.868 151.554v-15.136h27.786v15.136h-27.786zm26.786-1.001v-1 1zm-24.785-1h23.785v-11.137h-23.785v11.137zM244.871 151.554v-15.136h27.784v15.136h-27.784zm26.784-1.001v-1 1zm-24.784-1h23.783v-11.137h-23.783v11.137zM281.872 151.554v-15.136h27.785v15.135h-27.785v.001zm26.785-1.001v-1 1zm-24.786-1h23.785v-11.136h-23.785v11.136zM318.872 151.554v-15.136h27.786v15.136h-27.786zm26.785-1.001v-1.001 1.001zm-24.785-1.001h23.784l-.001-11.135h-23.783v11.135zM355.873 151.553v-15.135h27.786v15.135h-27.786zm26.785-.999v-1.001 1.001zm-24.785-1.001h23.784v-11.135h-23.784v11.135zM392.874 151.553v-15.136h27.784v15.137h-27.784v-.001zm26.784-.999v-1.001 1.001zm-24.785-1.002h23.784v-11.134h-23.784v11.134zM429.876 151.552v-15.136h27.785v15.137h-27.785v-.001zm26.784-.999v-1 1zm-24.783-1h23.783l-.002-11.136h-23.781v11.136zM466.877 151.552v-15.134h27.784v15.134h-27.784zm26.783-1v-1 1zm-24.783-1h23.783v-11.135h-23.783v11.135zM503.877 151.553v-15.135h27.786v15.135h-27.786zm26.786-1v-1 1zm-24.784-1h23.782v-11.135h-23.782v11.135zM42.837 188.041v-15.135h27.787v15.135H42.837zm26.785-1v-1.001 1.001zm-24.784-1.001h23.784v-11.135H44.838v11.135zM79.837 188.041v-15.135h27.787v15.135H79.837zm26.786-1v-1.001 1.001zm-24.784-1.001h23.784v-11.135H81.839v11.135zM116.841 188.041v-15.135h27.784v15.135h-27.784zm26.783-1v-1.001 1.001zm-24.784-1.001h23.784v-11.135H118.84v11.135zM153.841 188.041v-15.135h27.785v15.135h-27.785zm26.784-1v-1.001 1.001zm-24.784-1.001h23.784v-11.135h-23.784v11.135zM190.842 188.041v-15.135h27.785v15.135h-27.785zm26.784-1v-1.001 1.001zm-24.784-1.001h23.786v-11.135h-23.786v11.135zM227.843 188.041v-15.135h27.785v15.135h-27.785zm26.784-1v-1.001 1.001zm-24.784-1.001h23.786v-11.135h-23.786v11.135zM264.844 188.041v-15.135h27.785v15.135h-27.785zm26.786-1v-1.001 1.001zm-24.787-1.001h23.786v-11.135h-23.786v11.135zM301.845 188.04v-15.136h27.782V188.04h-27.782zm26.785-.999v-1.001 1.001zm-24.785-1.001h23.783l-.002-11.136h-23.781v11.136zM338.844 188.04v-15.135h27.787v15.135h-27.787zm26.787-.999v-1.001 1.001zm-24.785-1.001h23.783v-11.135h-23.783v11.135zM375.845 188.04v-15.136h27.787v15.136h-27.787zm26.787-1v-1.001 1.001zm-24.786-1.001h23.785v-11.134h-23.785v11.134zM412.848 188.041v-15.137h27.786v15.137h-27.786zm26.785-1v-1.002 1.002zm-24.785-1.002h23.784v-11.133h-23.784v11.133zM449.848 188.04v-15.135h27.786v15.135h-27.786zm26.787-1v-1 1zm-24.788-1h23.785v-11.135h-23.785v11.135zM486.848 188.041v-15.136h27.787v15.136h-27.787zm26.787-1v-1.002 1.002zm-24.785-1.002h23.783v-11.134H488.85v11.134zM521.878 188.041v-15.135h27.785v15.135h-27.785zm26.785-1v-1.002 1.002zm-24.785-1.002h23.785v-11.133h-23.785v11.133zM53.541 224.527V209.39h27.784V224.527H53.541zm26.785-1.001v-1.001 1.001zm-24.785-1.001h23.784V211.39H55.541v11.135zM90.541 224.527V209.39h27.786V224.527H90.541zm26.785-1.001v-1.001 1.001zm-24.785-1.001h23.784V211.39H92.541v11.135zM127.543 224.527V209.39h27.784V224.527h-27.784zm26.785-1.001v-1.001 1.001zm-24.785-1.001h23.784v-11.133h-23.784v11.133zM164.543 224.527V209.39h27.786V224.527h-27.786zm26.785-1.001v-1.001 1.001zm-24.785-1.001h23.784V211.39h-23.784v11.135zM201.545 224.527V209.39h27.784V224.527h-27.784zm26.785-1.001v-1.001 1.001zm-24.785-1.001h23.784V211.39h-23.784v11.135zM238.545 224.527V209.39h27.786V224.527h-27.786zm26.785-1.001v-1.001 1.001zm-24.785-1.001h23.784v-11.133h-23.784v11.133zM275.547 224.527V209.39h27.784V224.527h-27.784zm26.786-1.001v-1.001 1.001zm-24.786-1.001h23.784l-.002-11.133h-23.782v11.133zM312.547 224.527V209.39h27.787V224.527h-27.787zm26.785-1.001v-1.001 1.001zm-24.785-1.001h23.784v-11.133h-23.784v11.133zM349.55 224.526v-15.135h27.785v15.135H349.55zm26.785-.999v-1.002 1.002zm-24.787-1.002h23.786l-.002-11.135h-23.784v11.135zM386.548 224.527v-15.136h27.785v15.136h-27.785zm26.787-1.001v-1.001 1.001zm-24.785-1.001h23.784l-.002-11.134H388.55v11.134zM423.552 224.527v-15.136h27.785v15.136h-27.785zm26.784-1.001v-1.001 1.001zm-24.784-1.001h23.783v-11.134h-23.783v11.134zM460.551 224.526v-15.135h27.786v15.135h-27.786zm26.785-.999v-1.001 1.001zm-24.784-1.001h23.782v-11.135h-23.782v11.135zM497.552 224.527v-15.136h60.383v15.136h-60.383zm59.381-1.001v-1.001 1.001zm-57.38-1.001h56.379v-11.134h-56.379v11.134zM72.514 261.015v-15.136h27.785v15.136H72.514zm26.786-1v-1.001 1.001zm-24.785-1.001h23.784v-11.135H74.515v11.135zM109.516 261.015v-15.136H137.3v15.136h-27.784zm26.784-1v-1.001 1.001zm-24.783-1.001H135.3v-11.135h-23.783v11.135zM146.516 261.015v-15.136h27.785v15.136h-27.785zm26.785-1v-1.001 1.001zm-24.785-1.001H172.3v-11.135h-23.784v11.135zM183.518 261.015v-15.136h27.784v15.136h-27.784zm26.783-1v-1.001 1.001zm-24.783-1.001h23.783v-11.135h-23.783v11.135zM220.517 261.015v-15.136h27.787v15.136h-27.787zm26.785-1v-1.001 1.001zm-24.784-1.001h23.786l-.002-11.135h-23.784v11.135zM257.519 261.015v-15.136h27.784v15.136h-27.784zm26.785-1v-1.001 1.001zm-24.784-1.001h23.783v-11.135H259.52v11.135zM294.521 261.015v-15.136h27.785v15.136h-27.785zm26.785-1v-1.001 1.001zm-24.785-1.001h23.783v-11.135h-23.783v11.135zM331.52 261.015v-15.136h27.787v15.136H331.52zm26.785-1v-1.001 1.001zm-24.784-1.001h23.783v-11.135h-23.783v11.135zM368.521 261.015v-15.137h27.787v15.137h-27.787zm26.787-1v-1.001 1.001zm-24.786-1.001h23.785l-.002-11.135h-23.783v11.135zM405.523 261.015v-15.137h27.785v15.137h-27.785zm26.784-.999v-1.001 1.001zm-24.783-1.001h23.783V247.88h-23.783v11.135zM442.523 261.015v-15.137h27.787v15.137h-27.787zm26.786-.999v-1.001 1.001zm-24.786-1.001h23.785v-11.137h-23.785v11.137zM479.524 261.016v-15.138h27.787v15.138h-27.787zm26.785-1.001v-1.001 1.001zm-24.784-1.001h23.783v-11.135h-23.783v11.135zM143.543 297.503v-15.137h27.784V297.503h-27.784zm26.785-1.001v-1 1zm-24.786-1h23.786l-.002-11.135h-23.784v11.135zM180.545 297.503v-15.137h27.784V297.503h-27.784zm26.785-1.001v-1 1zm-24.786-1h23.784v-11.135h-23.784v11.135zM217.546 297.503v-15.137H393.47V297.503H217.546zm174.923-1.001v-1 1zm-172.922-1h171.922v-11.135H219.547v11.135zM402.441 297.503v-15.137h27.786V297.503h-27.786zm26.786-1.001v-1 1zm-24.785-1h23.784v-11.137h-23.784v11.137zM439.443 297.503v-15.137h27.786V297.503h-27.786zm26.785-1.001v-1.001 1.001zm-24.786-1.001h23.785v-11.136h-23.785v11.136zM31.513 108.903c-1.247-.017-2.251-.07-3.074-.846-.775-.824-.83-1.826-.845-3.073V14.008a5.38 5.38 0 0 1 5.378-5.38h532.231a5.382 5.382 0 0 1 5.38 5.38v90.976c-.017 1.247-.072 2.25-.847 3.073-.822.775-1.825.829-3.073.846H31.513zm535.15-2.001c1.17.015 1.626-.181 1.658-.259.081-.032.276-.488.259-1.659l.003-90.976a3.386 3.386 0 0 0-3.38-3.379H32.972a3.383 3.383 0 0 0-3.377 3.379v90.976c-.017 1.17.18 1.627.259 1.659.032.079.489.274 1.659.259h535.15z"/>
    <path fill="#F4F4F4" d="m29.215 107.93 1.999-.055 5.515 208.546-2 .054-5.514-208.545zM560.96 316.422l5.513-208.546 2.001.053-5.514 208.546-2-.053z"/>
    <path fill="#F4F4F4" d="M37.513 342.422a5.377 5.377 0 0 1-5.379-5.379v-17.188c0-1.327.265-2.486 1.089-3.316.832-.825 1.991-1.091 3.318-1.091l525.257.002c1.326-.002 2.485.264 3.317 1.089.824.83 1.089 1.989 1.089 3.316v17.188a5.38 5.38 0 0 1-5.379 5.379H37.513zm-2.877-24.47c-.273.266-.501.811-.503 1.902v17.188a3.384 3.384 0 0 0 3.379 3.379h523.312a3.38 3.38 0 0 0 3.377-3.379v-17.188c0-1.092-.227-1.637-.503-1.902-.265-.276-.809-.503-1.901-.503H36.541c-1.093 0-1.637.227-1.905.503zM455.741 46.63a4.892 4.892 0 0 1-4.893-4.891V24.711a4.895 4.895 0 0 1 4.893-4.893l76.381.002a4.894 4.894 0 0 1 4.893 4.891v17.028a4.893 4.893 0 0 1-4.893 4.891h-76.381zm-2.892-21.919v17.028a2.895 2.895 0 0 0 2.892 2.892h76.381a2.896 2.896 0 0 0 2.892-2.892V24.711a2.896 2.896 0 0 0-2.892-2.892h-76.381a2.895 2.895 0 0 0-2.892 2.892z"/>
</svg>

<?xml version="1.0" encoding="utf-8"?>
<!-- Generator: Adobe Illustrator 13.0.0, SVG Export Plug-In . SVG Version: 6.00 Build 14948)  -->
<!DOCTYPE svg PUBLIC "-//W3C//DTD SVG 1.1//EN" "http://www.w3.org/Graphics/SVG/1.1/DTD/svg11.dtd">
<svg version="1.1" id="Layer_2" xmlns="http://www.w3.org/2000/svg" xmlns:xlink="http://www.w3.org/1999/xlink" x="0px" y="0px"
	 width="598.189px" height="350.26px" viewBox="0 0 598.189 350.26" enable-background="new 0 0 598.189 350.26"
	 xml:space="preserve">
<path fill="#F4F4F4" d="M59.865,151.554v-15.136h27.786v14.136v1H59.865L59.865,151.554z M86.651,150.553v-1V150.553L86.651,150.553
	z M61.865,149.553h23.785v-11.135H61.865V149.553L61.865,149.553z"/>
<path fill="#F4F4F4" d="M96.865,151.554v-15.136h27.786v14.136v1H96.865L96.865,151.554z M123.651,150.553v-1V150.553
	L123.651,150.553z M98.866,149.553h23.785v-11.137H98.866V149.553L98.866,149.553z"/>
<path fill="#F4F4F4" d="M133.867,151.554v-15.136h27.784v14.136v1H133.867L133.867,151.554z M160.652,150.553v-1V150.553
	L160.652,150.553z M135.868,149.553h23.783v-11.137h-23.783V149.553L135.868,149.553z"/>
<path fill="#F4F4F4" d="M170.868,151.554v-15.136h27.786v14.136v1H170.868L170.868,151.554z M197.654,150.553v-1V150.553
	L197.654,150.553z M172.869,149.553h23.784l-0.002-11.137h-23.782V149.553L172.869,149.553z"/>
<path fill="#F4F4F4" d="M207.868,151.554v-15.136h27.786v14.136v1H207.868L207.868,151.554z M234.654,150.553v-1V150.553
	L234.654,150.553z M209.869,149.553h23.785v-11.137h-23.785V149.553L209.869,149.553z"/>
<path fill="#F4F4F4" d="M244.871,151.554v-15.136h27.784v14.136v1H244.871L244.871,151.554z M271.655,150.553v-1V150.553
	L271.655,150.553z M246.871,149.553h23.783v-11.137h-23.783V149.553L246.871,149.553z"/>
<path fill="#F4F4F4" d="M281.872,151.554v-15.136h27.785v14.135v1H281.872L281.872,151.554z M308.657,150.553v-1V150.553
	L308.657,150.553z M283.871,149.553h23.785v-11.136h-23.785V149.553L283.871,149.553z"/>
<path fill="#F4F4F4" d="M318.872,151.554v-15.136h27.786v14.135v1.001H318.872L318.872,151.554z M345.657,150.553v-1.001V150.553
	L345.657,150.553z M320.872,149.552h23.784l-0.001-11.135h-23.783V149.552L320.872,149.552z"/>
<path fill="#F4F4F4" d="M355.873,151.553v-15.135h27.786v14.136v0.999H355.873L355.873,151.553z M382.658,150.554v-1.001V150.554
	L382.658,150.554z M357.873,149.553h23.784v-11.135h-23.784V149.553L357.873,149.553z"/>
<path fill="#F4F4F4" d="M392.874,151.553v-15.136h27.784v14.137v1H392.874L392.874,151.553z M419.658,150.554v-1.001V150.554
	L419.658,150.554z M394.873,149.552h23.784v-11.134h-23.784V149.552L394.873,149.552z"/>
<path fill="#F4F4F4" d="M429.876,151.552v-15.136h27.785v14.137v1H429.876L429.876,151.552z M456.66,150.553v-1V150.553
	L456.66,150.553z M431.877,149.553h23.783l-0.002-11.136h-23.781V149.553L431.877,149.553z"/>
<path fill="#F4F4F4" d="M466.877,151.552v-15.134h27.784v14.134v1H466.877L466.877,151.552z M493.66,150.552v-1V150.552
	L493.66,150.552z M468.877,149.552h23.783v-11.135h-23.783V149.552L468.877,149.552z"/>
<path fill="#F4F4F4" d="M503.877,151.553v-15.135h27.786v14.135v1H503.877L503.877,151.553z M530.663,150.553v-1V150.553
	L530.663,150.553z M505.879,149.553h23.782v-11.135h-23.782V149.553L505.879,149.553z"/>
<path fill="#F4F4F4" d="M42.837,188.041v-15.135h27.787v14.135v1H42.837L42.837,188.041z M69.622,187.041v-1.001V187.041
	L69.622,187.041z M44.838,186.04h23.784v-11.135H44.838V186.04L44.838,186.04z"/>
<path fill="#F4F4F4" d="M79.837,188.041v-15.135h27.787v14.135v1H79.837L79.837,188.041z M106.623,187.041v-1.001V187.041
	L106.623,187.041z M81.839,186.04h23.784v-11.135H81.839V186.04L81.839,186.04z"/>
<path fill="#F4F4F4" d="M116.841,188.041v-15.135h27.784v14.135v1H116.841L116.841,188.041z M143.624,187.041v-1.001V187.041
	L143.624,187.041z M118.84,186.04h23.784v-11.135H118.84V186.04L118.84,186.04z"/>
<path fill="#F4F4F4" d="M153.841,188.041v-15.135h27.785v14.135v1H153.841L153.841,188.041z M180.625,187.041v-1.001V187.041
	L180.625,187.041z M155.841,186.04h23.784v-11.135h-23.784V186.04L155.841,186.04z"/>
<path fill="#F4F4F4" d="M190.842,188.041v-15.135h27.785v14.135v1H190.842L190.842,188.041z M217.626,187.041v-1.001V187.041
	L217.626,187.041z M192.842,186.04h23.786v-11.135h-23.786V186.04L192.842,186.04z"/>
<path fill="#F4F4F4" d="M227.843,188.041v-15.135h27.785v14.135v1H227.843L227.843,188.041z M254.627,187.041v-1.001V187.041
	L254.627,187.041z M229.843,186.04h23.786v-11.135h-23.786V186.04L229.843,186.04z"/>
<path fill="#F4F4F4" d="M264.844,188.041v-15.135h27.785v14.135v1H264.844L264.844,188.041z M291.63,187.041v-1.001V187.041
	L291.63,187.041z M266.843,186.04h23.786v-11.135h-23.786V186.04L266.843,186.04z"/>
<path fill="#F4F4F4" d="M301.845,188.04v-15.136h27.782v14.137v0.999H301.845L301.845,188.04z M328.63,187.041v-1.001V187.041
	L328.63,187.041z M303.845,186.04h23.783l-0.002-11.136h-23.781V186.04L303.845,186.04z"/>
<path fill="#F4F4F4" d="M338.844,188.04v-15.135h27.787v14.136v0.999H338.844L338.844,188.04z M365.631,187.041v-1.001V187.041
	L365.631,187.041z M340.846,186.04h23.783v-11.135h-23.783V186.04L340.846,186.04z"/>
<path fill="#F4F4F4" d="M375.845,188.04v-15.136h27.787v14.136v1H375.845L375.845,188.04z M402.632,187.04v-1.001V187.04
	L402.632,187.04z M377.846,186.039h23.785v-11.134h-23.785V186.039L377.846,186.039z"/>
<path fill="#F4F4F4" d="M412.848,188.041v-15.137h27.786v14.137v1H412.848L412.848,188.041z M439.633,187.041v-1.002V187.041
	L439.633,187.041z M414.848,186.039h23.784v-11.133h-23.784V186.039L414.848,186.039z"/>
<path fill="#F4F4F4" d="M449.848,188.04v-15.135h27.786v14.135v1H449.848L449.848,188.04z M476.635,187.04v-1V187.04L476.635,187.04
	z M451.847,186.04h23.785v-11.135h-23.785V186.04L451.847,186.04z"/>
<path fill="#F4F4F4" d="M486.848,188.041v-15.136h27.787v14.136v1H486.848L486.848,188.041z M513.635,187.041v-1.002V187.041
	L513.635,187.041z M488.85,186.039h23.783v-11.134H488.85V186.039L488.85,186.039z"/>
<path fill="#F4F4F4" d="M521.878,188.041v-15.135h27.785v14.135v1H521.878L521.878,188.041z M548.663,187.041v-1.002V187.041
	L548.663,187.041z M523.878,186.039h23.785v-11.133h-23.785V186.039L523.878,186.039z"/>
<path fill="#F4F4F4" d="M53.541,224.527v-15.137h27.784v14.136v1.001H53.541L53.541,224.527z M80.326,223.526v-1.001V223.526
	L80.326,223.526z M55.541,222.525h23.784v-11.135H55.541V222.525L55.541,222.525z"/>
<path fill="#F4F4F4" d="M90.541,224.527v-15.137h27.786v14.136v1.001H90.541L90.541,224.527z M117.326,223.526v-1.001V223.526
	L117.326,223.526z M92.541,222.525h23.784v-11.135H92.541V222.525L92.541,222.525z"/>
<path fill="#F4F4F4" d="M127.543,224.527v-15.137h27.784v14.136v1.001H127.543L127.543,224.527z M154.328,223.526v-1.001V223.526
	L154.328,223.526z M129.543,222.525h23.784v-11.133h-23.784V222.525L129.543,222.525z"/>
<path fill="#F4F4F4" d="M164.543,224.527v-15.137h27.786v14.136v1.001H164.543L164.543,224.527z M191.328,223.526v-1.001V223.526
	L191.328,223.526z M166.543,222.525h23.784v-11.135h-23.784V222.525L166.543,222.525z"/>
<path fill="#F4F4F4" d="M201.545,224.527v-15.137h27.784v14.136v1.001H201.545L201.545,224.527z M228.33,223.526v-1.001V223.526
	L228.33,223.526z M203.545,222.525h23.784v-11.135h-23.784V222.525L203.545,222.525z"/>
<path fill="#F4F4F4" d="M238.545,224.527v-15.137h27.786v14.136v1.001H238.545L238.545,224.527z M265.33,223.526v-1.001V223.526
	L265.33,223.526z M240.545,222.525h23.784v-11.133h-23.784V222.525L240.545,222.525z"/>
<path fill="#F4F4F4" d="M275.547,224.527v-15.137h27.784v14.136v1.001H275.547L275.547,224.527z M302.333,223.526v-1.001V223.526
	L302.333,223.526z M277.547,222.525h23.784l-0.002-11.133h-23.782V222.525L277.547,222.525z"/>
<path fill="#F4F4F4" d="M312.547,224.527v-15.137h27.787v14.136v1.001H312.547L312.547,224.527z M339.332,223.526v-1.001V223.526
	L339.332,223.526z M314.547,222.525h23.784v-11.133h-23.784V222.525L314.547,222.525z"/>
<path fill="#F4F4F4" d="M349.55,224.526v-15.135h27.785v14.136v0.999H349.55L349.55,224.526z M376.335,223.527v-1.002V223.527
	L376.335,223.527z M351.548,222.525h23.786l-0.002-11.135h-23.784V222.525L351.548,222.525z"/>
<path fill="#F4F4F4" d="M386.548,224.527v-15.136h27.785v14.135v1.001H386.548L386.548,224.527z M413.335,223.526v-1.001V223.526
	L413.335,223.526z M388.55,222.525h23.784l-0.002-11.134H388.55V222.525L388.55,222.525z"/>
<path fill="#F4F4F4" d="M423.552,224.527v-15.136h27.785v14.135v1.001H423.552L423.552,224.527z M450.336,223.526v-1.001V223.526
	L450.336,223.526z M425.552,222.525h23.783v-11.134h-23.783V222.525L425.552,222.525z"/>
<path fill="#F4F4F4" d="M460.551,224.526v-15.135h27.786v14.136v0.999H460.551L460.551,224.526z M487.336,223.527v-1.001V223.527
	L487.336,223.527z M462.552,222.526h23.782v-11.135h-23.782V222.526L462.552,222.526z"/>
<path fill="#F4F4F4" d="M497.552,224.527v-15.136h60.383v14.135v1.001H497.552L497.552,224.527z M556.933,223.526v-1.001V223.526
	L556.933,223.526z M499.553,222.525h56.379v-11.134h-56.379V222.525L499.553,222.525z"/>
<path fill="#F4F4F4" d="M72.514,261.015v-15.136h27.785v14.136v1H72.514L72.514,261.015z M99.3,260.015v-1.001V260.015L99.3,260.015
	z M74.515,259.014h23.784v-11.135H74.515V259.014L74.515,259.014z"/>
<path fill="#F4F4F4" d="M109.516,261.015v-15.136h27.784v14.136v1H109.516L109.516,261.015z M136.3,260.015v-1.001V260.015
	L136.3,260.015z M111.517,259.014H135.3v-11.135h-23.783V259.014L111.517,259.014z"/>
<path fill="#F4F4F4" d="M146.516,261.015v-15.136h27.785v14.136v1H146.516L146.516,261.015z M173.301,260.015v-1.001V260.015
	L173.301,260.015z M148.516,259.014H172.3v-11.135h-23.784V259.014L148.516,259.014z"/>
<path fill="#F4F4F4" d="M183.518,261.015v-15.136h27.784v14.136v1H183.518L183.518,261.015z M210.301,260.015v-1.001V260.015
	L210.301,260.015z M185.518,259.014h23.783v-11.135h-23.783V259.014L185.518,259.014z"/>
<path fill="#F4F4F4" d="M220.517,261.015v-15.136h27.787v14.136v1H220.517L220.517,261.015z M247.302,260.015v-1.001V260.015
	L247.302,260.015z M222.518,259.014h23.786l-0.002-11.135h-23.784V259.014L222.518,259.014z"/>
<path fill="#F4F4F4" d="M257.519,261.015v-15.136h27.784v14.136v1H257.519L257.519,261.015z M284.304,260.015v-1.001V260.015
	L284.304,260.015z M259.52,259.014h23.783v-11.135H259.52V259.014L259.52,259.014z"/>
<path fill="#F4F4F4" d="M294.521,261.015v-15.136h27.785v14.136v1H294.521L294.521,261.015z M321.306,260.015v-1.001V260.015
	L321.306,260.015z M296.521,259.014h23.783v-11.135h-23.783V259.014L296.521,259.014z"/>
<path fill="#F4F4F4" d="M331.52,261.015v-15.136h27.787v14.136v1H331.52L331.52,261.015z M358.305,260.015v-1.001V260.015
	L358.305,260.015z M333.521,259.014h23.783v-11.135h-23.783V259.014L333.521,259.014z"/>
<path fill="#F4F4F4" d="M368.521,261.015v-15.137h27.787v14.137v1H368.521L368.521,261.015z M395.308,260.015v-1.001V260.015
	L395.308,260.015z M370.522,259.014h23.785l-0.002-11.135h-23.783V259.014L370.522,259.014z"/>
<path fill="#F4F4F4" d="M405.523,261.015v-15.137h27.785v14.138v0.999H405.523L405.523,261.015z M432.307,260.016v-1.001V260.016
	L432.307,260.016z M407.524,259.015h23.783V247.88h-23.783V259.015L407.524,259.015z"/>
<path fill="#F4F4F4" d="M442.523,261.015v-15.137h27.787v14.138v0.999H442.523L442.523,261.015z M469.309,260.016v-1.001V260.016
	L469.309,260.016z M444.523,259.015h23.785v-11.137h-23.785V259.015L444.523,259.015z"/>
<path fill="#F4F4F4" d="M479.524,261.016v-15.138h27.787v14.137v1.001H479.524L479.524,261.016z M506.309,260.015v-1.001V260.015
	L506.309,260.015z M481.525,259.014h23.783v-11.135h-23.783V259.014L481.525,259.014z"/>
<path fill="#F4F4F4" d="M143.543,297.503v-15.137h27.784v14.136v1.001H143.543L143.543,297.503z M170.328,296.502v-1V296.502
	L170.328,296.502z M145.542,295.502h23.786l-0.002-11.135h-23.784V295.502L145.542,295.502z"/>
<path fill="#F4F4F4" d="M180.545,297.503v-15.137h27.784v14.136v1.001H180.545L180.545,297.503z M207.33,296.502v-1V296.502
	L207.33,296.502z M182.544,295.502h23.784v-11.135h-23.784V295.502L182.544,295.502z"/>
<path fill="#F4F4F4" d="M217.546,297.503v-15.137h175.924v14.136v1.001H217.546L217.546,297.503z M392.469,296.502v-1V296.502
	L392.469,296.502z M219.547,295.502h171.922v-11.135H219.547V295.502L219.547,295.502z"/>
<path fill="#F4F4F4" d="M402.441,297.503v-15.137h27.786v14.136v1.001H402.441L402.441,297.503z M429.227,296.502v-1V296.502
	L429.227,296.502z M404.442,295.502h23.784v-11.137h-23.784V295.502L404.442,295.502z"/>
<path fill="#F4F4F4" d="M439.443,297.503v-15.137h27.786v14.136v1.001H439.443L439.443,297.503z M466.228,296.502v-1.001V296.502
	L466.228,296.502z M441.442,295.501h23.785v-11.136h-23.785V295.501L441.442,295.501z"/>
<path fill="#F4F4F4" d="M31.513,108.903c-1.247-0.017-2.251-0.07-3.074-0.846l0,0c-0.775-0.824-0.83-1.826-0.845-3.073l0,0V14.008
	c0-2.972,2.407-5.378,5.378-5.38l0,0h532.231c2.972,0.002,5.378,2.409,5.38,5.38l0,0v90.976c-0.017,1.247-0.072,2.25-0.847,3.073
	l0,0c-0.822,0.775-1.825,0.829-3.073,0.846l0,0H31.513L31.513,108.903z M566.663,106.902c1.17,0.015,1.626-0.181,1.658-0.259l0,0
	c0.081-0.032,0.276-0.488,0.259-1.659l0,0l0.003-90.976c-0.005-1.865-1.513-3.375-3.38-3.379l0,0H32.972
	c-1.865,0.004-3.375,1.514-3.377,3.379l0,0v90.976c-0.017,1.17,0.18,1.627,0.259,1.659l0,0c0.032,0.079,0.489,0.274,1.659,0.259l0,0
	H566.663L566.663,106.902z"/>
<polygon fill="#F4F4F4" points="29.215,107.93 31.214,107.875 36.729,316.421 34.729,316.475 29.215,107.93 "/>
<polygon fill="#F4F4F4" points="560.96,316.422 566.473,107.876 568.474,107.929 562.96,316.475 560.96,316.422 "/>
<path fill="#F4F4F4" d="M37.513,342.422c-2.972,0-5.379-2.407-5.379-5.379l0,0v-17.188c0-1.327,0.265-2.486,1.089-3.316l0,0
	c0.832-0.825,1.991-1.091,3.318-1.091l0,0l525.257,0.002c1.326-0.002,2.485,0.264,3.317,1.089l0,0
	c0.824,0.83,1.089,1.989,1.089,3.316l0,0v17.188c-0.002,2.972-2.409,5.379-5.379,5.379l0,0H37.513L37.513,342.422z M34.636,317.952
	c-0.273,0.266-0.501,0.811-0.503,1.902l0,0v17.188c0.004,1.868,1.514,3.375,3.379,3.379l0,0h523.312
	c1.866-0.004,3.375-1.511,3.377-3.379l0,0v-17.188c0-1.092-0.227-1.637-0.503-1.902l0,0c-0.265-0.276-0.809-0.503-1.901-0.503l0,0
	H36.541C35.448,317.449,34.904,317.676,34.636,317.952L34.636,317.952z"/>
<path fill="#F4F4F4" d="M455.741,46.63c-2.701,0-4.893-2.189-4.893-4.891l0,0V24.711c0-2.702,2.191-4.891,4.893-4.893l0,0
	l76.381,0.002c2.701,0,4.891,2.189,4.893,4.891l0,0v17.028c-0.002,2.702-2.191,4.891-4.893,4.891l0,0H455.741L455.741,46.63z
	 M452.849,24.711v17.028c0.002,1.597,1.295,2.89,2.892,2.892l0,0h76.381c1.595-0.002,2.89-1.295,2.892-2.892l0,0V24.711
	c-0.002-1.597-1.297-2.89-2.892-2.892l0,0h-76.381C454.144,21.821,452.851,23.114,452.849,24.711L452.849,24.711z"/>
</svg>
